icons/desktop/16/svg/tracking-cookies-slash-16.svg

<svg width="16" height="16" viewBox="0 0 16 16" fill="none" xmlns="http://www.w3.org/2000/svg">
<path d="M5 8.25293C5.69032 8.25293 6.24993 8.81263 6.25 9.50293C6.25 10.1933 5.69036 10.7529 5 10.7529C4.30964 10.7529 3.75 10.1933 3.75 9.50293C3.75007 8.81263 4.30968 8.25293 5 8.25293Z" fill="black"/>
<path fill-rule="evenodd" clip-rule="evenodd" d="M0.219727 0.222656C0.512604 -0.0701556 0.987396 -0.0701556 1.28027 0.222656L15.7803 14.7227C16.0731 15.0155 16.0731 15.4903 15.7803 15.7832C15.4874 16.0761 15.0126 16.0761 14.7197 15.7832L13.082 14.1455C11.6779 15.3124 9.89325 16.0029 8 16.0029C3.589 16.0029 0 12.4139 0 8.00293C1.53287e-05 6.0667 0.692756 4.29055 1.8418 2.90527L0.219727 1.2832C-0.0731056 0.990305 -0.0731463 0.515529 0.219727 0.222656ZM2.90918 3.97266C2.02818 5.08042 1.50001 6.48022 1.5 8.00293C1.5 11.5869 4.416 14.5029 8 14.5029C9.48987 14.5029 10.8953 13.9762 12.0176 13.0811L10.6748 11.7383C10.4968 11.9018 10.2607 12.0029 10 12.0029C9.44771 12.0029 9 11.5552 9 11.0029C9.00003 10.7422 9.1002 10.5051 9.26367 10.3271L2.90918 3.97266Z" fill="black"/>
<path d="M8 0C8.44586 1.01751e-06 8.90173 0.0419591 9.39355 0.128906C9.76455 0.193906 10.0297 0.524391 10.0127 0.900391C10.0116 0.926863 10.003 1.01224 9.99902 1.03711C10.0001 2.46606 11.0902 3.73985 12.5342 3.96484C12.7701 4.00288 12.973 4.14845 13.083 4.3584L13.3643 4.89355C13.4802 5.1154 13.4781 5.3797 13.3594 5.59961C13.1214 6.0386 13 6.51098 13 7.00098C13 8.27098 13.8153 9.40524 15.0303 9.82324C15.2221 9.88928 15.3779 10.0291 15.4639 10.2119C15.5508 10.3949 15.5592 10.605 15.4893 10.7939C15.3243 11.2369 15.1129 11.6518 14.8779 12.0498L13.7803 10.9521C13.7872 10.9382 13.7967 10.926 13.8037 10.9121C13.7398 10.8761 13.683 10.8319 13.6211 10.793L12.1699 9.3418C11.744 8.65184 11.5 7.84888 11.5 7.00195C11.5 6.42897 11.6083 5.87367 11.8223 5.34668C10.0384 4.87071 8.73943 3.36217 8.5293 1.52734C8.3493 1.51134 8.17299 1.50293 8 1.50293C6.93601 1.50293 5.93387 1.76473 5.04688 2.21973V2.2168L3.94629 1.11621C5.13626 0.412259 6.51906 0 8 0Z" fill="black"/>
</svg>

<!-- This Source Code Form is subject to the terms of the Mozilla Public
   - License, v. 2.0. If a copy of the MPL was not distributed with this
   - file, You can obtain one at http://mozilla.org/MPL/2.0/. -->
<svg xmlns="http://www.w3.org/2000/svg" width="16" height="16" fill="context-fill" fill-opacity="context-fill-opacity" viewBox="0 0 16 16">
    <path d="M5 8.253a1.25 1.25 0 1 1 0 2.5 1.25 1.25 0 0 1 0-2.5" />
    <path fill-rule="evenodd" d="M.22.223a.75.75 0 0 1 1.06 0l14.5 14.5a.75.75 0 0 1-1.06 1.06l-1.638-1.637A7.96 7.96 0 0 1 8 16.003c-4.411 0-8-3.59-8-8a7.96 7.96 0 0 1 1.842-5.098L.22 1.283a.75.75 0 0 1 0-1.06m2.69 3.75a6.45 6.45 0 0 0-1.41 4.03c0 3.584 2.916 6.5 6.5 6.5 1.49 0 2.895-.527 4.018-1.422l-1.343-1.343a1 1 0 0 1-1.411-1.411z" clip-rule="evenodd" />
    <path d="M8 0c.446 0 .902.042 1.394.129a.75.75 0 0 1 .619.771 2 2 0 0 1-.014.137C10 2.467 11.09 3.74 12.534 3.965a.75.75 0 0 1 .549.393l.281.536a.75.75 0 0 1-.005.706C13.121 6.039 13 6.51 13 7c0 1.27.815 2.404 2.03 2.822a.75.75 0 0 1 .459.97 8 8 0 0 1-.611 1.257l-1.098-1.098q.012-.02.024-.04c-.064-.036-.121-.08-.183-.119L12.17 9.342a4.45 4.45 0 0 1-.67-2.34c0-.573.108-1.128.322-1.655a4.47 4.47 0 0 1-3.293-3.82A6 6 0 0 0 8 1.503a6.45 6.45 0 0 0-2.953.717v-.003l-1.1-1.1A7.94 7.94 0 0 1 8 0" />
</svg>
